X:1
T:Ego dixi Domine
T:Felice Anerio edit BMarble
T:Ego dixi Domine
C:Felice Anerio
C:edit BMarble
%%score [ 1 2 3 4 ]
L:1/8
Q:1/2=92
M:4/2
K:A
V:1 treble nm="Soprano" snm="S/A."
V:2 treble nm="Alto" snm="A."
V:3 treble-8 transpose=-12 nm="Tenor" snm="T."
V:4 bass nm="Baritone" snm="B."
V:1
"^Psalm 41: I said, Lord, be merciful to me: heal my soul, for I have sinned against thee. My enemies speak evil of me: \"When shall he die, and his name perish?\"But you, Lord, show me mercy, and save me." z16 | %1
w: |
 z16 | z16 | z16 | z8 F8- | F4 F4 E4 F4 | =G6 G2 F8- | F8 z4 F4- | F4 E4 D4 C4 | B,8 F8 | z16 | %11
w: |||E-|* go- di- xi:-|Do- mi- ne,|_ mi-|* se- re- re-|me- i,-||
 z8 z4 C4- | C4 C4 B,4 C4 | D6 D2 C8 | z4 B,8 A,4 | D4 C4 z4 A4- | A4 G4 F4 E4 | D8 (C6 D2 | %18
w: e-|* go- di- xi:-|Do- mi- ne,-|mi- se-|re- re,- mi-|* se- re- re-|me- i: _|
 E8) z8 | z8 A8 | G4 A6 G2 G4 | F16 | B,8 z4 B4- | B4 A8 G4 | ^A4 B4 c8 | G4 G4 =A4 F4 | %26
w: _|sa-|na- a- ni- mam|me-|am,- qui-|* a- pec-|ca- vi- ti-|bi,- pec- ca- vi-|
 G2 F2 F6 ^E2 E4 | F16 | A12 A4 | A4 A4 F8 | E4 E4 A8 | G16 | F4 E4 A8 | G8 z4 G4- | %34
w: ti- * * * *|bi.-|I- ni-|mi- ci- me-|i- di- xe-|runt-|ma- la- mi-|hi:- quan-|
 G2 G2 G2 G2 A8 | F4 B8 A4 | B8 F4 A4- | (A2 B2 c8) A4 | G8 F8- | F8 A8- | A8 G8 | F8 A8- | %42
w: * do- mo- ri- e-|tur,- et- pe-|ri- bit- no-|* * * men-|e- ius?|_ Tu|_ au-|tem,- Do-|
 A4 A4 A8 | A12 A4 | A4 A4 F8- | F8 ^D4 D4 | E4 F4 =D8 | z8 C8 | D8 E8 | A,8 E8- | E8 D8 | C8 z8 | %52
w: * mi- ne,-|mi- se-|re- re- me-|* i,- et-|sal- va- me,-|et-|sal- va-|me,- tu|_ au-|tem,-|
 z8 A8- | A8 G8 | F8 A6 A2 | A8 z8 | E12 E4 | E4 E4 E4 A,4 | z8 C8 | D8 C8 | C8 z4 C4 || %61
w: tu|_ au-|tem,- Do- mi-|ne,-|mi- se-|re- re- me- i,-|et-|sal- va-|me,- et-|
[M:3/1] D8 C8 C8- | C16 |] %63
w: sal- va- me.|_|
V:2
 C12 C4 | B,4 C4 D6 D2 | C16 | z4 F8 E4 | D4 C4 D8- | D4 C4 B,4 A,4 | B,6 C2 D8 | C6 D2 E4 D2 C2 | %8
w: E- go-|di- xi:- Do- mi-|ne,-|mi- se-|re- re,- mi-|* se- re- re-|me- * *||
 B,8 F8- | F8 z4 C4- | C4 C4 B,4 C4 | D4 D4 C4 F4- | F4 E4 D4 C4- | C4 (B,8 ^A,4) | B,8 F8- | %15
w: * i,|_ e-|* go- di- xi:-|Do- mi- ne,- mi-|* se- re- re|_ me- *|i,- mi-|
 F4 E4 D4 C2 B,2 | C2 D2 E2 E,2 F,2 G,2 A,4- | A,4 G,4 A,8 | A,8 z4 E4 | C4 E6 ^D2 D4 | E16 | %21
w: * se- re- * *||* re- me-|i:- sa-|na- a- ni- mam-|me-|
 B,8 z8 | z4 E8 =D4- | D4 C4 ^D4 E4 | (F2 E2 =D4 C4) C4 | ^D4 E4 A,4 B,4- | B,2 A,G, A,2 G,F, G,8 | %27
w: am,-|qui- a|_ pec- ca- vi-|ti- * * * bi,-|pec- ca- vi- ti-||
 A,16 | z4 C8 C4 | C4 C4 D8 | C4 A,4 C8 | B,4 E8 E4 | (C8 D8) | E8 z4 E4- | E2 E2 E2 E2 F8 | %35
w: bi.-|I- ni-|mi- ci- me-|i- di- xe-|runt- ma- la-|mi- *|hi:- quan-|* do- mo- ri- e-|
 B,4 =G8 F4 | =G8 D4 F4- | (F2 E2 C2 ^D2 ^E4) F4- | F4 ^E4 F8 | z8 F8 | =E16 | (A,6 G,2 F,8) | %42
w: tur,- et- pe-|ri- bit- no-|* * * * * men|_ e- ius?-|Tu-|au-|tem, _ _|
 F6 F2 F4 F4- | F4 F4 F4 F4 | (F6 E2 D8) | C8 z4 B,4 | C8 B,8 | G,8 A,8- | A,4 B,8 C4 | %49
w: Do- mi- ne,- mi-|* se- re- re-|me- * *|i,- et-|sal- va-|me,- et|_ sal- va-|
 F,4 D4 C4 B,4 | C8 z8 | z8 E8 | D8 C8- | C16 | z8 z4 A,4- | A,2 A,2 A,4 G,8- | G,4 G,4 G,4 C4 | %57
w: me,- et- sal- va-|me,-|tu-|au- tem.|_|Do-|* mi- ne,- mi-|* se- re- re-|
 B,8 C4 C4 | D8 E8 | B,8 G,8 | A,8 (C8 ||[M:3/1] B,8) (A,8 G,8 | ^A,16) |] %63
w: me- i,- et-|sal- va-|me,- et-|sal- va|_ me. _|_|
V:3
 z16 | z16 | F12 F4 | E4 F4 =G6 G2 | F8 z4 B4- | B4 A4 =G4 F4 | E8 D2 E2 F2 ^G2 | A2 B2 c2 A2 B8 | %8
w: ||E- go-|di- xi:- Do- mi-|ne.- mi-|* se- re- re-|me- i, _ _ _|_ _ _ _ _|
 z4 B8 A4 | d8 c4 A4- | A4 ^G4 F4 E4 | (F6 G2 A8) | G8 z8 | z8 z4 f4- | f4 e4 d4 c4 | %15
w: mi- se-|re- re,- mi-|* se- re- re|me- * *|i,-|mi-|* se- re- re-|
 F2 G2 A2 GA B4 A4- | (A2 B2 c2 G2 A8) | z8 e8 | c4 e6 d2 c4- | c4 B4 A6 B2 | c4 B2 A2 B4 e4- | %21
w: me- * * * * * i:|_ _ _ _ _|sa-|na- a- ni- mam|_ me- am, _|_ _ _ _ qui-|
 e4 =d8 c4 | ^d4 e4 f8 | f8 z4 c4- | c4 B8 ^A4 | B4 c4 F8 | c16 | z4 c8 c4 | c4 c4 A8- | A8 A8- | %30
w: * a- pec-|ca- vi- ti-|bi,- qui-|* a- pec-|ca- vi- ti-|bi.-|I- ni-|mi- ci- me-|* i|
 A4 E4 e8- | e4 B4 c4 G4 | A16 | B4 B6 B2 B2 B2 | c8 F4 d4- | d4 B4 d8 | =G4 B8 F4 | (A6 B2 c8-) | %38
w: _ di- xe-|* runt- ma- la-|mi-|hi:- quan- do- mo- ri-|e- tur,- et|_ pe- ri-|bit- no- men-|e- * *|
 c8 F8 | z8 d8 | c8 B8 | d12 d4 | d4 d8 d4 | d4 d4 c6 B2 | c2 d2 c6 B2 B4- | B4 ^A4 B4 F4 | %46
w: * ius?-|Tu-|au- tem,-|Do- mi-|ne,- mi- se-|re- re- me- *||* * i,- et-|
 (A6 G2 F2 E2 F4-) | F4 ^E4 F4 F4- | F4 G8 A4- | A2 F2 A6 G2 G2 FG | A2 B2 c6 B2 B2 AB | c8 B8 | %52
w: sal- * * * *|* va- me,- et|_ sal- va,|_ et- sal- * * * *||va me,-|
 z16 | e16 | d8 c8 | e6 e2 e4 B4 | B4 B8 A4- | A4 G4 A4 A4 | B8 c2 B2 A2 G2 | F12 ^E4 | %60
w: |tu-|au- tem,-|Do- mi- ne,- mi-|se- re- re|_ me- i,- et-|sal- * * * *|* va-|
 F8 =E4 F4- ||[M:3/1] F4 G6 F2 F8 ^E4 | F16 |] %63
w: me,- et- sal-|* * * * va|me.-|
V:4
 z16 | z16 | z16 | z16 | z16 | z16 | z8 F,8- | F,4 F,4 E,4 F,4 | =G,6 G,2 F,8 | z8 F,8- | %10
w: ||||||E-|* go- di- xi:-|Do- mi- ne,-|mi-|
 F,4 E,4 D,4 C,4 | (B,,2 C,2 D,2 E,2 F,8) | C,8 z4 F,4- | F,4 F,4 E,4 F,4 | =G,6 G,2 F,8 | %15
w: * se- re- re-|me- * * * *|i,- e-|* go- di- xi:-|Do- mi- ne,-|
 z8 z4 F,4- | F,4 E,4 D,4 C,4 | B,,8 A,,8 | z4 A,4 G,4 A,4- | A,2 A,2 G,4 F,8 | E,16 | %21
w: mi-|* se- re- re-|me- i:-|sa- na- a-|* ni- mam- me-|am,-|
 z4 B,8 A,4- | A,4 G,4 ^A,4 B,4 | F,12 C,4 | z8 z4 F,4- | F,4 E,8 ^D,4 | ^E,4 F,4 C,8 | F,16 | %28
w: qui- a|_ pec- ca- vi-|ti- bi,-|qui-|* a- pec-|ca- vi- ti-|bi.-|
 F,12 F,4 | F,4 F,4 D,8 | A,,8 A,,8 | E,12 E,4 | F,4 C,4 F,8 | E,16 | z16 | z16 | z16 | z16 | z16 | %39
w: I- ni-|mi- ci- me-|i- di-|xe- runt-|ma- la- mi-|hi:-||||||
 F,8 D,8 | (A,,8 E,8) | D,12 D,4 | D,16 | F,12 F,4 | F,4 F,4 F,8- | F,8 B,,8 | A,,8 B,,8 | %47
w: Tu- au-|tem, _|Do- mi-|ne,-|mi- se-|re- re- me-|* i,-|et- sal-|
 C,8 F,,8 | z8 z4 C,4 | D,8 E,8 | A,,8 z8 | A,8 G,8 | F,8 A,6 A,2 | A,8 z8 | z16 | z8 E,8- | %56
w: va- me,-|et-|sal- va-|me,-|tu- au-|tem,- Do- mi-|ne,-||mi-|
 E,4 E,4 E,4 E,4 | E,8 A,,8 | z8 A,,8 | B,,8 C,8 | F,,8 A,,8 ||[M:3/1] B,,8 C,16 | F,,16 |] %63
w: * se- re- re-|me- i,-|et-|sal- va-|me,- et-|sal- va-|me.-|

